X: 4004
T: VALE OF LEVEN
C: Carl Volti
R: Reel.
%R: reel
B: James Kerr "Merry Melodies" v.3 p.04 #4
Z: 2016 John Chambers <jc:trillian.mit.edu>
M: C|
L: 1/8
K: A
[|\
vA2(AB) ABcd | efec eaga |\
A2(AB) ABcA | FBBA GABc |\
A2(AB) ABcd | efec eaga |\
fgag fedc | BcBA GBBe |]
[|\
ceef ecAB | ceef eaga |\
ceef ecAc | FBBA GABd |\
ceef ecAB | ceef eaga |\
fgag fedc | BcBA GBBe |]

%%sep 1 1 500
%%sep 1 1 500

